X: 23126
T: Lauren's Air
R: march
M: 
K: Dmajor
M:2/4
de|f<a af|e2 fe|d<B Bd|A2 FG|
A<d fg|a<f ed|e4|e2 de|
f<a af|e2 fe|d<B Bd|A2 FA|
Bd g<b|aA f<e|d4|d2||
FG|A<F ED|d2 cd|B<A FG|E2 DE|
FA d<f|a<f ed|e4|e2 FG|
A<F ED|d2 de|fe f<d|B2 dB|
A<F dA|G<E Ac|d4|d2||

